images_sukapura_svg/cmd/sc_datadatapilotrun.svg

<svg viewBox="0 0 16 16" xmlns="http://www.w3.org/2000/svg" xmlns:xlink="http://www.w3.org/1999/xlink"><linearGradient id="a" gradientUnits="userSpaceOnUse" x1="12.875071" x2="5.124855" y1="15.499941" y2="5.124941"><stop offset="0" stop-color="#0040dd"/><stop offset="1" stop-color="#0a84ff"/></linearGradient><g fill="#a2a2a7"><path d="m0 0h3v3h-3z"/><path d="m5 0v3h5.875l.53125-.53125-.08594.097656c.288389-.3753123.73964-.5933074 1.212891-.5859374.0013-.0000025.0026-.0000025.0039 0 .457925.00857.888773.2272343 1.166016.5917968l-.089836-.1015623.529297.5292969h1.857422v-3z"/><path d="m0 5v11h3v-1.90625l-.5117188-.511719.095703.08398c-.7599903-.587053-.7570104-1.7956.00586-2.378907l-.0996098.087896.5097656-.509766v-5.865234z"/></g><path d="m12.492188 3a.50005.50005 0 0 0 -.345704.1464844l-3 2.9999996a.50005.50005 0 0 0 .353516.853516h2.005859l-.002.988281a.49599547.49599547 0 0 0 0 .002c0 1.940444-1.561769 3.502834-3.501953 3.503907l-1.001906-.003954v-1.990234a.49998857.49998857 0 0 0 -.515625-.5.49998857.49998857 0 0 0 -.337891.146484l-2.9999996 3a.49998857.49998857 0 0 0 0 .707032l2.9999996 3a.49998857.49998857 0 0 0 .853516-.353516v-2.017578l.998047.0039a.49599547.49599547 0 0 0 .002 0c3.028788 0 5.495011-2.465601 5.496094-5.49414v-.002l.003859-.990182h2a.50005.50005 0 0 0 .353516-.853516l-3-2.9999996a.50005.50005 0 0 0 -.361328-.1464844z" fill="url(#a)" fill-rule="evenodd"/></svg>

<?xml version="1.0" encoding="UTF-8" standalone="no"?>
<svg
   xmlns:dc="http://purl.org/dc/elements/1.1/"
   xmlns:cc="http://creativecommons.org/ns#"
   xmlns:rdf="http://www.w3.org/1999/02/22-rdf-syntax-ns#"
   xmlns:svg="http://www.w3.org/2000/svg"
   xmlns="http://www.w3.org/2000/svg"
   xmlns:xlink="http://www.w3.org/1999/xlink"
   xmlns:sodipodi="http://sodipodi.sourceforge.net/DTD/sodipodi-0.dtd"
   xmlns:inkscape="http://www.inkscape.org/namespaces/inkscape"
   viewBox="0 0 16 16"
   version="1.1"
   id="svg12"
   sodipodi:docname="sc_datadatapilotrun.svg"
   inkscape:version="0.92.3 (2405546, 2018-03-11)">
  <metadata
     id="metadata18">
    <rdf:RDF>
      <cc:Work
         rdf:about="">
        <dc:format>image/svg+xml</dc:format>
        <dc:type
           rdf:resource="http://purl.org/dc/dcmitype/StillImage" />
        <dc:title></dc:title>
      </cc:Work>
    </rdf:RDF>
  </metadata>
  <defs
     id="defs16">
    <linearGradient
       gradientTransform="translate(-4,-4)"
       inkscape:collect="always"
       xlink:href="#a"
       id="linearGradient2778"
       x1="16.875071"
       y1="19.499941"
       x2="9.124855"
       y2="9.1249409"
       gradientUnits="userSpaceOnUse" />
    <linearGradient
       gradientTransform="translate(16.8125,3.5625)"
       id="a"
       gradientUnits="userSpaceOnUse"
       x1="14"
       x2="13.79661"
       y1="22"
       y2="2.1355929">
      <stop
         offset="0"
         stop-color="#0040dd"
         id="stop2189" />
      <stop
         offset="1"
         stop-color="#0a84ff"
         id="stop2191" />
    </linearGradient>
  </defs>
  <sodipodi:namedview
     pagecolor="#ffffff"
     bordercolor="#666666"
     borderopacity="1"
     objecttolerance="10"
     gridtolerance="10"
     guidetolerance="10"
     inkscape:pageopacity="0"
     inkscape:pageshadow="2"
     inkscape:window-width="1366"
     inkscape:window-height="685"
     id="namedview14"
     showgrid="true"
     inkscape:zoom="14.75"
     inkscape:cx="5.505909"
     inkscape:cy="2.5779043"
     inkscape:window-x="0"
     inkscape:window-y="0"
     inkscape:window-maximized="1"
     inkscape:current-layer="svg12">
    <inkscape:grid
       type="xygrid"
       id="grid828" />
  </sodipodi:namedview>
  <g
     id="g1528">
    <path
       style="fill:#a2a2a7;fill-opacity:1"
       id="path12"
       d="M 0,0 H 3 V 3 H 0 Z"
       inkscape:connector-curvature="0" />
    <path
       style="fill:#a2a2a7;fill-opacity:1"
       id="path14"
       d="m 5,0 v 3 h 5.875 l 0.53125,-0.53125 -0.08594,0.097656 c 0.288389,-0.3753123 0.73964,-0.5933074 1.212891,-0.5859374 0.0013,-2.5e-6 0.0026,-2.5e-6 0.0039,0 0.457925,0.00857 0.888773,0.2272343 1.166016,0.5917968 L 13.613281,2.4707031 14.142578,3 H 16 V 0 Z"
       inkscape:connector-curvature="0"
       sodipodi:nodetypes="ccccccccccccc" />
    <path
       style="fill:#a2a2a7;fill-opacity:1"
       id="path16"
       d="m 0,5 v 11 h 3 v -1.90625 l -0.5117188,-0.511719 0.095703,0.08398 c -0.7599903,-0.587053 -0.7570104,-1.7956 0.00586,-2.378907 L 2.4902344,11.375 3,10.865234 V 5 Z"
       inkscape:connector-curvature="0"
       sodipodi:nodetypes="ccccccccccc" />
    <path
       id="path20"
       d="m 12.492188,3 a 0.50005,0.50005 0 0 0 -0.345704,0.1464844 l -3,2.9999996 A 0.50005,0.50005 0 0 0 9.5,7 h 2.005859 l -0.002,0.988281 a 0.49599547,0.49599547 0 0 0 0,0.002 c 0,1.940444 -1.561769,3.502834 -3.501953,3.503907 L 7,11.490234 V 9.5 A 0.49998857,0.49998857 0 0 0 6.484375,9 0.49998857,0.49998857 0 0 0 6.146484,9.146484 l -2.9999996,3 a 0.49998857,0.49998857 0 0 0 0,0.707032 l 2.9999996,3 A 0.49998857,0.49998857 0 0 0 7,15.5 v -2.017578 l 0.998047,0.0039 a 0.49599547,0.49599547 0 0 0 0.002,0 c 3.028788,0 5.495011,-2.465601 5.496094,-5.49414 v -0.002 L 13.5,7 h 2 a 0.50005,0.50005 0 0 0 0.353516,-0.853516 l -3,-2.9999996 A 0.50005,0.50005 0 0 0 12.492188,3 Z"
       style="fill:url(#linearGradient2778);fill-opacity:1;fill-rule:evenodd"
       inkscape:connector-curvature="0" />
  </g>
</svg>
